components/ui-node-icon/src/countMatches/countMatches.large.svg

<svg width="32" height="32" viewBox="0 0 32 32" fill="none" xmlns="http://www.w3.org/2000/svg">
  <path d="M12 19C12 17.8954 12.8954 17 14 17H27C28.1046 17 29 17.8954 29 19V24C29 25.1046 28.1046 26 27 26H14C12.8954 26 12 25.1046 12 24V19Z" fill="var(--tbl--colors--icons--clean--secondary)"/>
  <path fill-rule="evenodd" clip-rule="evenodd" d="M6.97184 5.61833C7.297 5.79235 7.49998 6.13121 7.49998 6.5V13.5C7.49998 14.0523 7.05227 14.5 6.49998 14.5C5.9477 14.5 5.49998 14.0523 5.49998 13.5V8.36852L4.05468 9.33205C3.59516 9.6384 2.97429 9.51423 2.66793 9.0547C2.36158 8.59517 2.48576 7.9743 2.94528 7.66795L5.94528 5.66795C6.25214 5.46338 6.64668 5.44431 6.97184 5.61833ZM4.71152 19.8343C4.5602 20.0445 4.49998 20.3267 4.49998 20.5C4.49998 21.0523 4.05227 21.5 3.49998 21.5C2.9477 21.5 2.49998 21.0523 2.49998 20.5C2.49998 20.0066 2.63977 19.2889 3.08845 18.6657C3.57385 17.9915 4.37406 17.5 5.49998 17.5C6.6259 17.5 7.42612 17.9915 7.91152 18.6657C8.3602 19.2889 8.49998 20.0066 8.49998 20.5C8.49998 21.3875 8.14847 22.2012 7.71726 22.875C7.3291 23.4815 6.83932 24.0325 6.35884 24.5H7.49998C8.05227 24.5 8.49998 24.9477 8.49998 25.5C8.49998 26.0523 8.05227 26.5 7.49998 26.5H3.49998C3.05387 26.5 2.66172 26.2045 2.53874 25.7757C2.41582 25.3471 2.59149 24.8889 2.96936 24.6524L2.96966 24.6522C2.96981 24.6521 2.96999 24.652 3.49998 25.5L2.96999 24.652L2.97535 24.6486L3.00238 24.6313C3.0273 24.6152 3.06563 24.5902 3.11545 24.5568C3.21519 24.49 3.36039 24.3902 3.53581 24.2623C3.88841 24.0052 4.35435 23.6408 4.81604 23.208C5.28144 22.7717 5.71814 22.2884 6.03271 21.7969C6.3515 21.2988 6.49998 20.8626 6.49998 20.5C6.49998 20.3267 6.43976 20.0445 6.28845 19.8343C6.17385 19.6751 5.97406 19.5 5.49998 19.5C5.0259 19.5 4.82612 19.6751 4.71152 19.8343ZM14 6C12.8954 6 12 6.89543 12 8V13C12 14.1046 12.8954 15 14 15H27C28.1046 15 29 14.1046 29 13V8C29 6.89543 28.1046 6 27 6H14Z" fill="var(--tbl--colors--icons--clean--primary)"/>
</svg>

<svg xmlns="http://www.w3.org/2000/svg" width="32" height="32" fill="none" viewBox="0 0 32 32">
  <path fill="var(--tbl--colors--icons--clean--secondary)" d="M12 19a2 2 0 0 1 2-2h13a2 2 0 0 1 2 2v5a2 2 0 0 1-2 2H14a2 2 0 0 1-2-2v-5Z"/>
  <path fill="var(--tbl--colors--icons--clean--primary)" fill-rule="evenodd" d="M6.972 5.618A1 1 0 0 1 7.5 6.5v7a1 1 0 1 1-2 0V8.369l-1.445.963a1 1 0 0 1-1.11-1.664l3-2a1 1 0 0 1 1.027-.05Zm-2.26 14.216c-.152.21-.212.493-.212.666a1 1 0 1 1-2 0c0-.493.14-1.211.588-1.834C3.574 17.99 4.374 17.5 5.5 17.5s1.926.491 2.412 1.166c.448.623.588 1.34.588 1.834 0 .887-.352 1.701-.783 2.375-.388.607-.878 1.157-1.358 1.625H7.5a1 1 0 1 1 0 2h-4a1 1 0 0 1-.53-1.848l.53.848-.53-.848.005-.003.027-.018c.025-.016.064-.04.113-.074a13.737 13.737 0 0 0 1.7-1.349c.466-.436.903-.92 1.218-1.411.318-.498.467-.934.467-1.297 0-.173-.06-.456-.212-.666-.114-.159-.314-.334-.788-.334-.474 0-.674.175-.788.334ZM14 6a2 2 0 0 0-2 2v5a2 2 0 0 0 2 2h13a2 2 0 0 0 2-2V8a2 2 0 0 0-2-2H14Z" clip-rule="evenodd"/>
</svg>
